X: 4153
M: C
L: 1/16
K: Bb
(uDE) |\
vF3uG GFED FD3 D3B | F3GB3D F6 G2 |\
f3de3c d3Bc3A | B3G FD3 C6 |]\
g2 |\
fd3 d3g fd3 d3g | f3db3d f6 g2 |\
fd3 d3g f3d dfga |
b3gf3d dc3 c3g |\
fd3 d3g fd3 d3g | gfed b2d2 f4 (f2ga) |\
bagf gfed edcB dcBA | cBAG GFED {D}C4 C2 |]


